X:1
T:Altes Volkslied
T:Johannes Brahms
T:Altes Volkslied
T:aus Zwölf Deutsche Volkslieder, WoO 35,9
T:CPDL - Creative Commons Attribution Non Commercial 3.0
T:CPDL - Creative Commons Attribution Non Commercial 3.0
C:Johannes Brahms
Z:CPDL - Creative Commons Attribution Non Commercial 3.0
%%score [ 1 2 3 4 ]
L:1/8
Q:1/4=66
M:2/4
K:C
V:1 treble nm="S"
V:2 treble nm="A"
V:3 treble-8 nm="T"
V:4 bass nm="B"
V:1
"^Andante" z | z4 | z2 !fermata!z z |!p!"^Alle" A2 e2 | de !fermata!A | z | z4 | z4 | %8
w: |||1.\-4.~Blau, blau,|Blü- me- lein!||||
!p!"^Alle" A^G/A/ B2 | A^G/A/ B2 |!<(! A2!<)! ee | (cB/c/) A |] %12
w: 1.\-4.~Ro- sen im Tal,|Mä- del im Saal,|o schön- ste|Ro- * * sa!|
V:2
 z | z4 | z2 !fermata!z z |!p!"^Alle" A2 A2 | A^G !fermata!A | z | z4 | z4 |!p!"^Alle" EE/E/ E2 | %9
w: |||1.\-4.~Blau, blau,|Blü- me- lein!||||1.\-4.~Ro- sen im Tal,|
 EE/E/ E2 |!<(! E2!<)! EE | (ED) C |] %12
w: Mä- del im Saal,|o schön- ste|Ro- * *|
V:3
"^Vorsänger" E | AB cA | (^GA) !fermata!B z |"^Alle"!p! c2 c2 | AB !fermata!c |"^Vorsänger" A | %6
w: 1.~Ver-|stoh- len geht der|Mond _ auf,|1.\-4.~Blau, blau|Blü- me- lein!|1.~durch|
w: 2.~Er|steigt die blau- e|Luft hin- durch,|||2.~bis|
w: 3.~O|schau- e Mond durchs|Fen- ster- lein,|||3.~schön|
w: 4.~Und|siehst du mich und|siehst du sie,|||4.~zwei|
 BB dd | d e/c/ B z |!p!"^Alle" cd/c/ B2 | cd/c/ B2 |!<(! c2!<)! =GG | A^G A |] %12
w: Sil- ber- wölk- chen|führt sein _ Lauf;|1.\-4.~Ro- sen im Tal,|Mä- del im Saal,|o schön- ste|Ro- * sa!|
w: dass er schaut auf|Lö- wen- * burg;|||||
w: Tru- de lock mit|dei- nem _ Schein.|||||
w: treu- 're Her- zen|sahst du _ nie.|||||
V:4
 z | z4 | z2 !fermata!z z |!p!"^Alle" A,,2 C,2 | F,E, !fermata!A, | z | z4 | z4 | %8
w: |||1.\-4.~Blau, blau,|Blü- me- lein!||||
!p!"^Alle" A,B,/A,/ ^G,2 | A,B,/A,/ E,2 |!<(! A,2!<)! C,C, | E,2 A,, |] %12
w: 1.\-4.~Ro- sen im Tal,|Mä- del im Saal,|o schön- ste|Ro- sa!|

